img/icons/electronic/microwave-oven.svg

<svg xmlns="http://www.w3.org/2000/svg" viewBox="0 0 48 38"><defs><style>.cls-1{fill:#231f20}</style></defs><g id="Layer_2" data-name="Layer 2"><g id="Icons"><g id="Device_Electronic" data-name="Device / Electronic"><g id="Microwave_Oven" data-name="Microwave Oven"><path class="cls-1" d="M0 0v34h48V0zm46 7H36V2h10zM2 2h32v30H2zm34 30V9h10v23z"/><circle class="cls-1" cx="41" cy="21" r="2"/><circle class="cls-1" cx="41" cy="27" r="2"/><path class="cls-1" d="M4 36h6v2H4zm34 0h6v2h-6z"/></g></g></g></g></svg>

<svg xmlns="http://www.w3.org/2000/svg" viewBox="0 0 48 38"><defs><style>.cls-1{fill:#231f20;}</style></defs><title>Microwave Oven</title><g id="Layer_2" data-name="Layer 2"><g id="Icons"><g id="Device_Electronic" data-name="Device / Electronic"><g id="Microwave_Oven" data-name="Microwave Oven"><path class="cls-1" d="M0,0V34H48V0ZM46,7H36V2H46ZM2,2H34V32H2ZM36,32V9H46V32Z"/><circle class="cls-1" cx="41" cy="21" r="2"/><circle class="cls-1" cx="41" cy="27" r="2"/><rect class="cls-1" x="4" y="36" width="6" height="2"/><rect class="cls-1" x="38" y="36" width="6" height="2"/></g></g></g></g></svg>
